Apricity Icons/16/panel/qtpass-tray.svg

<svg xmlns="http://www.w3.org/2000/svg" width="16" height="16" version="1.1">
 <defs>
  <style id="current-color-scheme" type="text/css">
   .ColorScheme-Text { color:#dfdfdf; } .ColorScheme-Highlight { color:#4285f4; }
  </style>
 </defs>
 <path style="opacity:0.3;fill:currentColor" class="ColorScheme-Text" d="m 8.0000013,1 c -1.26666,0 -2.35614,0.557 -3.03086,1.4004 -0.67472,0.84338 -0.96914,1.91442 -0.96914,2.9996 l 0,4.6 2,0 0,-4.6 c 0,-0.71482 0.20558,-1.34378 0.53086,-1.7504 C 6.8561413,3.243 7.2666613,3 8.0000013,3 c 0.73334,0 1.14386,0.243 1.46914,0.6496 0.32528,0.40662 0.5308597,1.03558 0.5308597,1.7504 l 0,4.6 2,0 0,-4.6 c 0,-1.08518 -0.29442,-2.15622 -0.96914,-2.9996 C 10.356141,1.557 9.2666613,1 8.0000013,1 Z"/>
 <path style="fill:currentColor" class="ColorScheme-Text" d="M 5.359375 6.0019531 C 3.4334464 5.9303902 2.1010252 7.2146415 2.0058594 8.6054688 C 1.9564531 9.3275339 2.2398091 10.07681 2.9472656 10.681641 L 8 15 L 13.052734 10.681641 C 13.760186 10.076817 14.043543 9.3275454 13.994141 8.6054688 C 13.898975 7.2146506 12.566554 5.930387 10.640625 6.0019531 C 9.5444274 6.042523 8.5491583 6.5595145 8 7.3710938 C 7.4508388 6.5595076 6.455564 6.0425224 5.359375 6.0019531 z M 7.0019531 8 L 8 8 L 8.9980469 8 L 8.9980469 10 L 8.5214844 10 L 9.4980469 12 L 8 12 L 6.5019531 12 L 7.4785156 10 L 7.0019531 10 L 7.0019531 8 z"/>
</svg>

<svg xmlns="http://www.w3.org/2000/svg" width="16" height="16"><defs><style id="current-color-scheme" type="text/css">.ColorScheme-Text{color:#dfdfdf}</style></defs><path class="ColorScheme-Text" d="M8 1c-1.267 0-2.356.557-3.03 1.4-.676.844-.97 1.915-.97 3V10h2V5.4c0-.715.206-1.344.53-1.75C6.857 3.243 7.268 3 8 3s1.144.243 1.47.65c.324.406.53 1.035.53 1.75V10h2V5.4c0-1.085-.294-2.156-.97-3C10.357 1.557 9.268 1 8 1z" opacity=".3" fill="currentColor"/><path class="ColorScheme-Text" d="M5.36 6.002C3.432 5.93 2.1 7.215 2.005 8.605c-.05.723.234 1.472.941 2.077L8 15l5.053-4.318c.707-.605.99-1.354.941-2.077-.095-1.39-1.427-2.675-3.353-2.603-1.097.04-2.092.558-2.641 1.37-.55-.812-1.544-1.33-2.64-1.37zM7.001 8h1.996v2h-.477l.977 2H6.502l.977-2h-.477V8z" fill="currentColor"/></svg>
